X:1
T:Carol His Natal Day
T:Carol His Natal Day
T:John Henry Kurzenknabe
T:F. E. Pettingell, 1890
T:Public Domain Courtesy of the Cyber Hymnal™
C:John Henry Kurzenknabe
Z:Public Domain
Z:Courtesy of the Cyber Hymnal™
%%score 1 2
L:1/8
Q:1/4=80
M:4/4
K:Bb
V:1 treble 
V:2 bass 
V:1
 [DF]>[CE] [DF][Fd] [Ec]2 [DB]2 | [FB]>[FA] [FA][FB] [Fc]4 | [EA]>[EG] [EF][Ge] [Fd]2 [Ec]2 | %3
w: 1.~On the wilds of Ju- dah|Rests the calm of night;|Through its east- ern hea- vens|
w: 2.~’Neath the won- drous ha- lo|East- ern Ma- gi trend,|Till at length ex- ult- ant|
w: 3.~See the na- tions bend- ing|By His man- ger now;|See the wise, the might- y,|
 [Ec]>[DB] [DB][Ec] [Fd]4 | [Fd]>[Fd] [Fe][Fd] [Fc]2 [Ec]2 | [DB]>[GB] [Gc][GB] [^FA]4 | %6
w: Glows a won- drous light.|In its low- ly man- ger|Doth the mo- ther bide,|
w: Round His form they bend.|Choic- est gifts they ren- der,|High- est hon- ors pay,|
w: To His scep- ter bow.|Hear the an- gel cho- rus|Wak- en earth and sky;|
 [EG]>[EG] [GB][EG] [DF]2 [FB]2 | [Ec]>[DB] [Fd][Ec] [DB]4 ||"^Refrain" [Fd]>[Fd] [Fd][Fd] [Ef]4 | %9
w: With the in- fant Je- sus|Nest- ling by her side.||
w: To the in- fant Je- sus|On His na- tal day.|Glad an- gel- ic choirs|
w: Glo- ry in the high- est|Be to God on high.||
 [DB]>[DB] [GB][DB] [^Fd]4 | [Gc]>[GB] [FA][EG] [DF]2 [FB]2 | [Fd]>[DB] [Ec][EA] !fermata![DB]4 |] %12
w: |||
w: Sing in mid- night sky;|Glo- ry in the high- est|Be to God on high!|
w: |||
V:2
 [B,,B,]>[B,,B,] [B,,B,][B,,B,] [B,,B,]2 [B,,B,]2 | [F,D]>[F,C] [E,C][E,D] [F,E]4 | %2
 [F,C]>[F,C] [F,A,][F,C] [F,B,]2 [F,A,]2 | [B,,B,]>[B,,B,] [B,,B,][B,,B,] [B,,B,]4 | %4
 [B,,B,]>[B,,B,] [C,A,][D,B,] [F,A,]2 [F,A,]2 | [G,B,]>[G,D] [G,D][G,D] [D,D]4 | %6
 [E,B,]>[E,B,] [E,B,][E,B,] [B,,B,]2 [D,B,]2 | [F,A,]>[G,B,] [F,B,][F,A,] [B,,B,]4 || %8
 [B,,B,]>[B,,B,] [B,,B,][B,,B,] [F,A,]4 | [G,B,]>[G,B,] [G,D][G,B,] [D,A,]4 | %10
 [E,G,]>[E,B,] [E,B,][E,B,] [B,,B,]2 [D,B,]2 | [F,B,]>[F,B,] [F,A,][F,C] !fermata![B,,B,]4 |] %12

